X: 47
T: In the Bleak Mid-Winter
M: 4/4 % time signature
L: 1/4 % default length
%%staves (S1V1 S1V2) | (S2V1 S2V2) 
V: S1V1 clef=treble 
%%MIDI beat 127 125 110 1
V: S1V2 
%%MIDI beat 127 125 110 1
V: S2V1 clef=bass 
%%MIDI beat 127 125 110 1
V: S2V2 
%%MIDI beat 127 125 110 1
K: F % key signature
%
%%MIDI program 1 0 % Piano 1
%%MIDI program 2 0 % Piano 1
%%MIDI program 3 0 % Piano 1
%%MIDI program 4 0 % Piano 1
%
% 1
[V: S1V1] [Q:1/4=100] !()!A | .(A3/2 B/) c A | G.- G F2 | .(G3/2 A/) G D | G4 |
w: 1.~ In the bleak mid- win- * ter, frost- y wind made moan,
w: 2.~Our God, Heav'n can- not hold * him, nor_ earth sus- tain;
w: 3.~E- nough for him, whom cher- u- bim, wor- ship night and day,
w: 4.~ An- gels and arch- an- * gels may have ga- thered there,
w: 5.~ What_ can I give * him, poor_ as I am?
[V: S1V2] z | .(F3/2 F/) F C | D.- D D2 | .(D D) D C | B,4 |
[V: S2V1] z | .(C3/2 C/) C F, | A,.- A, A,2 | .(G,3/2 D,/) D, F, | (F,2 E,2) |
[V: S2V2] x | .(F,3/2 G,/) A, F, | D,.- D, D,2 | .( B,,3/2 C,/) B,, A,, | (G,,2 C,2) |
% 6
[V: S1V1] .(A3/2 B/) c A | G.- G F.- F | .(.(G A) G3/2) F/ | F3.- F |
w: Earth stood hard as i- * ron, * wa- ter like a stone; *
w: Heav'n and earth shall flee a- way * when he comes to reign. *
w: Breast- * ful of milk, * and a man- ger- ful of hay; En-
w: Cher- u- bim and ser- a- phim * thronged__ the air; *
w: If I were a shep- * herd, * I would bring a lamb; *
[V: S1V2] .(C3/2 F/) F C | D.- D D.- D | .(.(F F) E3/2) F/ | F3.- F |
[V: S2V1] .(F,3/2 C/) C F, | A,.- A, A,.- A, | .(.(D D) B,3/2) A,/ | A,3.- A, |
[V: S2V2] .(F,3/2 G,/) A, F, | D,.- D, D,.- D, | .(.(B,, B,,) C,3/2) F,/ | F,3.- F, |
% 10
[V: S1V1] B3/2 A/ B c | d.- d A.- A | .(c A) G F | E4 |
w: Snow had fall- en, snow on snow, * snow on snow on snow,
w: In the bleak mid- win- * ter a sta- ble place suf- ficed
w: ough for him, whom an- * gels * fall_ down be- fore,
w: But his mo- ther on- * ly, * in her mai- den bliss,
w: If I were a Wise * Man, * I would do my part;
[V: S1V2] F3/2 F/ F _E | D.- D F.- F | .(F E) D2 | C4 |
[V: S2V1] B,3/2 C/ B, A, | B,.- B, A,.- A, | .(F, C) B, A, | G,4 |
[V: S2V2] D,3/2 F,/ D, C, | B,,.- B,, D,.- D, | A,,.- A,, B,, B,, | C,4 |
% 10
[V: S1V1] A3/2 B/ c A | G2 F2 | !sintro!(G A G3/2) F/ | F3 !eintro!|]
w: In the bleak mid- win- ter, long * * a- go.	
w: The Lord God Al- migh- ty, Je- * * sus Christ.
w: Ox and ass and ca- mel which * * a- dore.
w: Wor- shiped the be- lov- ed with * * a kiss.
w: Yet what can I give him: give * * my heart.
[V: S1V2] C3/2 F/ F C | D2 D2 | (F2 E3/2) F/ | F3 |]
[V: S2V1] F,3/2 C/ C F, | A,2 A,2 | D2 (B,3/2 A,/) | A,3 |]
[V: S2V2] F,3/2 G,/ A, F, | D,2 D,2 | B,,2 (C,3/2 F,/) | F,3 |]


